svg/emoji_u2650.svg

<svg enable-background="new 0 0 128 128" viewBox="0 0 128 128" xmlns="http://www.w3.org/2000/svg"><linearGradient id="a" x1="64" x2="64" y1="4" y2="123.15" gradientUnits="userSpaceOnUse"><stop stop-color="#1976D2" offset="0"/><stop stop-color="#1871CC" offset=".2636"/><stop stop-color="#1461BC" offset=".605"/><stop stop-color="#0D48A2" offset=".9878"/><stop stop-color="#0D47A1" offset=".9954"/></linearGradient><circle cx="64" cy="64" r="60" fill="url(#a)"/><g opacity=".2"><path d="M64,7c31.43,0,57,25.57,57,57s-25.57,57-57,57S7,95.43,7,64S32.57,7,64,7 M64,4 C30.86,4,4,30.86,4,64s26.86,60,60,60s60-26.86,60-60S97.14,4,64,4L64,4z" fill="#424242"/></g><g opacity=".2"><path d="m92 34c2.21 0 4 1.79 4 4v28c0 2.21-1.79 4-4 4-0.13 0-0.26-0.01-0.39-0.02-2.08-0.2-3.61-2.06-3.61-4.15v-15.88c0-0.6-0.49-1-1.01-1-0.25 0-0.5 0.09-0.7 0.29l-21.57 21.12c-0.78 0.78-0.78 2.06 0.01 2.84l10.1 9.97c1.56 1.56 1.56 4.09 0 5.66-0.78 0.78-1.81 1.17-2.83 1.17s-2.05-0.39-2.83-1.17l-10.12-9.99c-0.39-0.38-0.9-0.58-1.41-0.58s-1.02 0.2-1.41 0.59l-17.45 17.98c-0.78 0.78-1.81 1.17-2.83 1.17-1.09 0-2.18-0.44-2.98-1.33-1.45-1.61-1.22-4.13 0.31-5.66l17.24-17.77c0.78-0.78 0.78-2.06-0.01-2.84l-9.68-9.56c-1.56-1.56-1.56-4.09 0-5.66 0.78-0.78 1.8-1.17 2.83-1.17s2.05 0.39 2.83 1.17l9.7 9.58c0.39 0.38 0.9 0.58 1.41 0.58s1.02-0.2 1.41-0.59l21.5-21.05c0.63-0.62 0.18-1.7-0.71-1.7h-15.8c-2.34 0-4.21-2.01-3.98-4.39 0.2-2.08 2.06-3.61 4.15-3.61h27.83m0-3h-27.83c-3.67 0-6.8 2.78-7.14 6.32-0.19 1.97 0.46 3.93 1.79 5.39 1.32 1.45 3.21 2.29 5.18 2.29h10.9l-17.3 16.94-9-8.89c-1.31-1.31-3.07-2.04-4.94-2.04s-3.63 0.73-4.95 2.05-2.05 3.08-2.05 4.95 0.73 3.63 2.05 4.95l8.99 8.88-16.57 17.08c-2.69 2.69-2.87 6.99-0.38 9.76 1.33 1.47 3.23 2.32 5.21 2.32 1.87 0 3.63-0.73 4.95-2.05l16.76-17.27 9.4 9.28c1.3 1.31 3.06 2.04 4.93 2.04s3.63-0.73 4.95-2.05 2.05-3.08 2.05-4.95-0.73-3.63-2.05-4.95l-9.39-9.27 17.44-17.08v11.13c0 3.67 2.78 6.8 6.32 7.14 0.23 0.02 0.46 0.03 0.68 0.03 3.86 0 7-3.14 7-7v-28c0-3.86-3.14-7-7-7z" fill="#424242"/></g><path d="m92 34h-27.83c-2.09 0-3.95 1.53-4.15 3.61-0.23 2.38 1.64 4.39 3.98 4.39h15.8c0.89 0 1.34 1.08 0.71 1.71l-21.5 21.05c-0.78 0.78-2.04 0.78-2.82 0.01l-9.7-9.58c-1.56-1.56-4.09-1.56-5.66 0-1.56 1.56-1.56 4.09 0 5.66l9.68 9.56c0.79 0.78 0.79 2.05 0.01 2.84l-17.24 17.76c-1.53 1.53-1.76 4.05-0.31 5.66 1.55 1.72 4.19 1.77 5.8 0.16l17.46-17.98c0.78-0.78 2.04-0.78 2.82-0.01l10.12 9.99c1.56 1.56 4.09 1.56 5.66 0 1.56-1.56 1.56-4.09 0-5.66l-10.1-9.97c-0.79-0.78-0.79-2.05-0.01-2.84l21.57-21.12c0.63-0.63 1.71-0.18 1.71 0.71v15.88c0 2.09 1.53 3.95 3.61 4.15 2.38 0.23 4.39-1.64 4.39-3.98v-28c0-2.21-1.79-4-4-4z" fill="#FAFAFA"/></svg>

<svg width="128" height="128" style="enable-background:new 0 0 128 128;" xmlns="http://www.w3.org/2000/svg" xmlns:xlink="http://www.w3.org/1999/xlink">
  <g>
    <linearGradient id="SVGID_1_" gradientUnits="userSpaceOnUse" x1="64" x2="64" y1="4" y2="123.148">
      <stop offset="0" style="stop-color:#1976D2"/>
      <stop offset="0.2636" style="stop-color:#1871CC"/>
      <stop offset="0.605" style="stop-color:#1461BC"/>
      <stop offset="0.9878" style="stop-color:#0D48A2"/>
      <stop offset="0.9954" style="stop-color:#0D47A1"/>
    </linearGradient>
    <circle cx="64" cy="64" r="60" style="fill:url(#SVGID_1_);"/>
    <g style="opacity:0.2;">
      <path d="M64,7c31.43,0,57,25.57,57,57s-25.57,57-57,57S7,95.43,7,64S32.57,7,64,7 M64,4 C30.86,4,4,30.86,4,64s26.86,60,60,60s60-26.86,60-60S97.14,4,64,4L64,4z" style="fill:#424242;"/>
    </g>
    <g style="opacity:0.2;">
      <path d="M92,34c2.21,0,4,1.79,4,4v28c0,2.21-1.79,4-4,4c-0.13,0-0.26-0.01-0.39-0.02 c-2.08-0.2-3.61-2.06-3.61-4.15V49.95c0-0.6-0.49-1-1.01-1c-0.25,0-0.5,0.09-0.7,0.29L64.72,70.36c-0.78,0.78-0.78,2.06,0.01,2.84 l10.1,9.97c1.56,1.56,1.56,4.09,0,5.66C74.05,89.61,73.02,90,72,90s-2.05-0.39-2.83-1.17l-10.12-9.99 c-0.39-0.38-0.9-0.58-1.41-0.58c-0.51,0-1.02,0.2-1.41,0.59L38.78,96.83C38,97.61,36.97,98,35.95,98c-1.09,0-2.18-0.44-2.98-1.33 c-1.45-1.61-1.22-4.13,0.31-5.66l17.24-17.77c0.78-0.78,0.78-2.06-0.01-2.84l-9.68-9.56c-1.56-1.56-1.56-4.09,0-5.66l0,0 c0.78-0.78,1.8-1.17,2.83-1.17s2.05,0.39,2.83,1.17l9.7,9.58c0.39,0.38,0.9,0.58,1.41,0.58c0.51,0,1.02-0.2,1.41-0.59l21.5-21.05 C81.14,43.08,80.69,42,79.8,42H64c-2.34,0-4.21-2.01-3.98-4.39c0.2-2.08,2.06-3.61,4.15-3.61H92 M92,31H64.17 c-3.67,0-6.8,2.78-7.14,6.32c-0.19,1.97,0.46,3.93,1.79,5.39C60.14,44.16,62.03,45,64,45h10.9L57.6,61.94l-9-8.89 c-1.31-1.31-3.07-2.04-4.94-2.04c-1.87,0-3.63,0.73-4.95,2.05c-1.32,1.32-2.05,3.08-2.05,4.95c0,1.87,0.73,3.63,2.05,4.95 l8.99,8.88L31.13,88.92c-2.69,2.69-2.87,6.99-0.38,9.76c1.33,1.47,3.23,2.32,5.21,2.32c1.87,0,3.63-0.73,4.95-2.05l16.76-17.27 l9.4,9.28C68.37,92.27,70.13,93,72,93c1.87,0,3.63-0.73,4.95-2.05C78.27,89.63,79,87.87,79,86c0-1.87-0.73-3.63-2.05-4.95 l-9.39-9.27L85,54.7v11.13c0,3.67,2.78,6.8,6.32,7.14C91.55,72.99,91.78,73,92,73c3.86,0,7-3.14,7-7V38C99,34.14,95.86,31,92,31 L92,31z" style="fill:#424242;"/>
    </g>
    <path d="M92,34l-27.83,0c-2.09,0-3.95,1.53-4.15,3.61C59.79,39.99,61.66,42,64,42h15.8 c0.89,0,1.34,1.08,0.71,1.71l-21.5,21.05c-0.78,0.78-2.04,0.78-2.82,0.01l-9.7-9.58c-1.56-1.56-4.09-1.56-5.66,0l0,0 c-1.56,1.56-1.56,4.09,0,5.66l9.68,9.56c0.79,0.78,0.79,2.05,0.01,2.84L33.28,91.01c-1.53,1.53-1.76,4.05-0.31,5.66 c1.55,1.72,4.19,1.77,5.8,0.16l17.46-17.98c0.78-0.78,2.04-0.78,2.82-0.01l10.12,9.99c1.56,1.56,4.09,1.56,5.66,0 c1.56-1.56,1.56-4.09,0-5.66l-10.1-9.97c-0.79-0.78-0.79-2.05-0.01-2.84l21.57-21.12c0.63-0.63,1.71-0.18,1.71,0.71v15.88 c0,2.09,1.53,3.95,3.61,4.15C93.99,70.21,96,68.34,96,66V38C96,35.79,94.21,34,92,34z" style="fill:#FAFAFA;"/>
  </g>
</svg>
